<?xml version="1.0" encoding="UTF-8"?>
<map version="1.10" tiledversion="1.11.2" orientation="orthogonal" renderorder="right-down" width="15" height="10" tilewidth="16" tileheight="16" infinite="0" nextlayerid="6" nextobjectid="1">
 <tileset firstgid="1" name="01005B03" tilewidth="16" tileheight="16" tilecount="1024" columns="32">
  <image source="01005B03.png" trans="ffffff" width="512" height="512"/>
 </tileset>
 <layer id="1" name="Tile Layer 1" width="15" height="10">
  <properties>
   <property name="Anims1" value="5"/>
   <property name="Anims2" value="0"/>
   <property name="ChapterID" value="0"/>
   <property name="Main" value=""/>
   <property name="MapChangesID" value="6"/>
   <property name="MapID" value="4"/>
   <property name="ObjectType" value="1"/>
   <property name="PaletteID" value="Fields4PaletteID"/>
   <property name="TileConfig" value="3"/>
  </properties>
  <data>
   <tile gid="808"/>
   <tile gid="809"/>
   <tile gid="810"/>
   <tile gid="163"/>
   <tile gid="173"/>
   <tile gid="167"/>
   <tile gid="72"/>
   <tile gid="26"/>
   <tile gid="123"/>
   <tile gid="785"/>
   <tile gid="851"/>
   <tile gid="786"/>
   <tile gid="143"/>
   <tile gid="110"/>
   <tile gid="496"/>
   <tile gid="840"/>
   <tile gid="841"/>
   <tile gid="842"/>
   <tile gid="750"/>
   <tile gid="626"/>
   <tile gid="784"/>
   <tile gid="47"/>
   <tile gid="263"/>
   <tile gid="3"/>
   <tile gid="68"/>
   <tile gid="133"/>
   <tile gid="71"/>
   <tile gid="104"/>
   <tile gid="67"/>
   <tile gid="560"/>
   <tile gid="872"/>
   <tile gid="873"/>
   <tile gid="874"/>
   <tile gid="782"/>
   <tile gid="529"/>
   <tile gid="816"/>
   <tile gid="265"/>
   <tile gid="789"/>
   <tile gid="3"/>
   <tile gid="131"/>
   <tile gid="99"/>
   <tile gid="47"/>
   <tile gid="131"/>
   <tile gid="785"/>
   <tile gid="786"/>
   <tile gid="205"/>
   <tile gid="298"/>
   <tile gid="67"/>
   <tile gid="779"/>
   <tile gid="781"/>
   <tile gid="199"/>
   <tile gid="298"/>
   <tile gid="100"/>
   <tile gid="62"/>
   <tile gid="57"/>
   <tile gid="933"/>
   <tile gid="396"/>
   <tile gid="132"/>
   <tile gid="721"/>
   <tile gid="45"/>
   <tile gid="237"/>
   <tile gid="266"/>
   <tile gid="784"/>
   <tile gid="712"/>
   <tile gid="205"/>
   <tile gid="934"/>
   <tile gid="238"/>
   <tile gid="783"/>
   <tile gid="94"/>
   <tile gid="123"/>
   <tile gid="721"/>
   <tile gid="792"/>
   <tile gid="200"/>
   <tile gid="783"/>
   <tile gid="117"/>
   <tile gid="883"/>
   <tile gid="397"/>
   <tile gid="945"/>
   <tile gid="786"/>
   <tile gid="237"/>
   <tile gid="793"/>
   <tile gid="67"/>
   <tile gid="653"/>
   <tile gid="28"/>
   <tile gid="190"/>
   <tile gid="53"/>
   <tile gid="119"/>
   <tile gid="397"/>
   <tile gid="54"/>
   <tile gid="191"/>
   <tile gid="915"/>
   <tile gid="792"/>
   <tile gid="210"/>
   <tile gid="134"/>
   <tile gid="67"/>
   <tile gid="881"/>
   <tile gid="786"/>
   <tile gid="132"/>
   <tile gid="805"/>
   <tile gid="28"/>
   <tile gid="85"/>
   <tile gid="87"/>
   <tile gid="35"/>
   <tile gid="85"/>
   <tile gid="86"/>
   <tile gid="946"/>
   <tile gid="883"/>
   <tile gid="99"/>
   <tile gid="15"/>
   <tile gid="785"/>
   <tile gid="915"/>
   <tile gid="654"/>
   <tile gid="680"/>
   <tile gid="166"/>
   <tile gid="785"/>
   <tile gid="786"/>
   <tile gid="205"/>
   <tile gid="298"/>
   <tile gid="808"/>
   <tile gid="809"/>
   <tile gid="164"/>
   <tile gid="945"/>
   <tile gid="883"/>
   <tile gid="169"/>
   <tile gid="72"/>
   <tile gid="816"/>
   <tile gid="712"/>
   <tile gid="655"/>
   <tile gid="165"/>
   <tile gid="805"/>
   <tile gid="100"/>
   <tile gid="237"/>
   <tile gid="266"/>
   <tile gid="872"/>
   <tile gid="873"/>
   <tile gid="933"/>
   <tile gid="132"/>
   <tile gid="816"/>
   <tile gid="107"/>
   <tile gid="105"/>
   <tile gid="80"/>
   <tile gid="136"/>
   <tile gid="79"/>
   <tile gid="76"/>
   <tile gid="133"/>
   <tile gid="817"/>
   <tile gid="818"/>
   <tile gid="792"/>
   <tile gid="146"/>
   <tile gid="232"/>
  </data>
 </layer>
 <layer id="2" name="Map Change 0" width="15" height="10">
  <properties>
   <property name="Height" value="3"/>
   <property name="ID" value="0"/>
   <property name="Width" value="3"/>
   <property name="X" value="0"/>
   <property name="Y" value="0"/>
  </properties>
  <data>
   <tile gid="904"/>
   <tile gid="905"/>
   <tile gid="906"/>
   <tile/>
   <tile/>
   <tile/>
   <tile/>
   <tile/>
   <tile/>
   <tile/>
   <tile/>
   <tile/>
   <tile/>
   <tile/>
   <tile/>
   <tile gid="936"/>
   <tile gid="937"/>
   <tile gid="938"/>
   <tile/>
   <tile/>
   <tile/>
   <tile/>
   <tile/>
   <tile/>
   <tile/>
   <tile/>
   <tile/>
   <tile/>
   <tile/>
   <tile/>
   <tile gid="968"/>
   <tile gid="969"/>
   <tile gid="970"/>
   <tile/>
   <tile/>
   <tile/>
   <tile/>
   <tile/>
   <tile/>
   <tile/>
   <tile/>
   <tile/>
   <tile/>
   <tile/>
   <tile/>
   <tile/>
   <tile/>
   <tile/>
   <tile/>
   <tile/>
   <tile/>
   <tile/>
   <tile/>
   <tile/>
   <tile/>
   <tile/>
   <tile/>
   <tile/>
   <tile/>
   <tile/>
   <tile/>
   <tile/>
   <tile/>
   <tile/>
   <tile/>
   <tile/>
   <tile/>
   <tile/>
   <tile/>
   <tile/>
   <tile/>
   <tile/>
   <tile/>
   <tile/>
   <tile/>
   <tile/>
   <tile/>
   <tile/>
   <tile/>
   <tile/>
   <tile/>
   <tile/>
   <tile/>
   <tile/>
   <tile/>
   <tile/>
   <tile/>
   <tile/>
   <tile/>
   <tile/>
   <tile/>
   <tile/>
   <tile/>
   <tile/>
   <tile/>
   <tile/>
   <tile/>
   <tile/>
   <tile/>
   <tile/>
   <tile/>
   <tile/>
   <tile/>
   <tile/>
   <tile/>
   <tile/>
   <tile/>
   <tile/>
   <tile/>
   <tile/>
   <tile/>
   <tile/>
   <tile/>
   <tile/>
   <tile/>
   <tile/>
   <tile/>
   <tile/>
   <tile/>
   <tile/>
   <tile/>
   <tile/>
   <tile/>
   <tile/>
   <tile/>
   <tile/>
   <tile/>
   <tile/>
   <tile/>
   <tile/>
   <tile/>
   <tile/>
   <tile/>
   <tile/>
   <tile/>
   <tile/>
   <tile/>
   <tile/>
   <tile/>
   <tile/>
   <tile/>
   <tile/>
   <tile/>
   <tile/>
   <tile/>
   <tile/>
   <tile/>
   <tile/>
   <tile/>
   <tile/>
  </data>
 </layer>
 <layer id="3" name="Map Change 1" width="15" height="10">
  <properties>
   <property name="Height" value="1"/>
   <property name="ID" value="1"/>
   <property name="Width" value="1"/>
   <property name="X" value="1"/>
   <property name="Y" value="2"/>
  </properties>
  <data>
   <tile/>
   <tile/>
   <tile/>
   <tile/>
   <tile/>
   <tile/>
   <tile/>
   <tile/>
   <tile/>
   <tile/>
   <tile/>
   <tile/>
   <tile/>
   <tile/>
   <tile/>
   <tile/>
   <tile/>
   <tile/>
   <tile/>
   <tile/>
   <tile/>
   <tile/>
   <tile/>
   <tile/>
   <tile/>
   <tile/>
   <tile/>
   <tile/>
   <tile/>
   <tile/>
   <tile/>
   <tile gid="33"/>
   <tile/>
   <tile/>
   <tile/>
   <tile/>
   <tile/>
   <tile/>
   <tile/>
   <tile/>
   <tile/>
   <tile/>
   <tile/>
   <tile/>
   <tile/>
   <tile/>
   <tile/>
   <tile/>
   <tile/>
   <tile/>
   <tile/>
   <tile/>
   <tile/>
   <tile/>
   <tile/>
   <tile/>
   <tile/>
   <tile/>
   <tile/>
   <tile/>
   <tile/>
   <tile/>
   <tile/>
   <tile/>
   <tile/>
   <tile/>
   <tile/>
   <tile/>
   <tile/>
   <tile/>
   <tile/>
   <tile/>
   <tile/>
   <tile/>
   <tile/>
   <tile/>
   <tile/>
   <tile/>
   <tile/>
   <tile/>
   <tile/>
   <tile/>
   <tile/>
   <tile/>
   <tile/>
   <tile/>
   <tile/>
   <tile/>
   <tile/>
   <tile/>
   <tile/>
   <tile/>
   <tile/>
   <tile/>
   <tile/>
   <tile/>
   <tile/>
   <tile/>
   <tile/>
   <tile/>
   <tile/>
   <tile/>
   <tile/>
   <tile/>
   <tile/>
   <tile/>
   <tile/>
   <tile/>
   <tile/>
   <tile/>
   <tile/>
   <tile/>
   <tile/>
   <tile/>
   <tile/>
   <tile/>
   <tile/>
   <tile/>
   <tile/>
   <tile/>
   <tile/>
   <tile/>
   <tile/>
   <tile/>
   <tile/>
   <tile/>
   <tile/>
   <tile/>
   <tile/>
   <tile/>
   <tile/>
   <tile/>
   <tile/>
   <tile/>
   <tile/>
   <tile/>
   <tile/>
   <tile/>
   <tile/>
   <tile/>
   <tile/>
   <tile/>
   <tile/>
   <tile/>
   <tile/>
   <tile/>
   <tile/>
   <tile/>
   <tile/>
   <tile/>
  </data>
 </layer>
 <layer id="5" name="Map Change 2" width="15" height="10">
  <properties>
   <property name="Height" value="1"/>
   <property name="ID" value="2"/>
   <property name="Width" value="1"/>
   <property name="X" value="14"/>
   <property name="Y" value="8"/>
  </properties>
  <data>
   <tile/>
   <tile/>
   <tile/>
   <tile/>
   <tile/>
   <tile/>
   <tile/>
   <tile/>
   <tile/>
   <tile/>
   <tile/>
   <tile/>
   <tile/>
   <tile/>
   <tile/>
   <tile/>
   <tile/>
   <tile/>
   <tile/>
   <tile/>
   <tile/>
   <tile/>
   <tile/>
   <tile/>
   <tile/>
   <tile/>
   <tile/>
   <tile/>
   <tile/>
   <tile/>
   <tile/>
   <tile/>
   <tile/>
   <tile/>
   <tile/>
   <tile/>
   <tile/>
   <tile/>
   <tile/>
   <tile/>
   <tile/>
   <tile/>
   <tile/>
   <tile/>
   <tile/>
   <tile/>
   <tile/>
   <tile/>
   <tile/>
   <tile/>
   <tile/>
   <tile/>
   <tile/>
   <tile/>
   <tile/>
   <tile/>
   <tile/>
   <tile/>
   <tile/>
   <tile/>
   <tile/>
   <tile/>
   <tile/>
   <tile/>
   <tile/>
   <tile/>
   <tile/>
   <tile/>
   <tile/>
   <tile/>
   <tile/>
   <tile/>
   <tile/>
   <tile/>
   <tile/>
   <tile/>
   <tile/>
   <tile/>
   <tile/>
   <tile/>
   <tile/>
   <tile/>
   <tile/>
   <tile/>
   <tile/>
   <tile/>
   <tile/>
   <tile/>
   <tile/>
   <tile/>
   <tile/>
   <tile/>
   <tile/>
   <tile/>
   <tile/>
   <tile/>
   <tile/>
   <tile/>
   <tile/>
   <tile/>
   <tile/>
   <tile/>
   <tile/>
   <tile/>
   <tile/>
   <tile/>
   <tile/>
   <tile/>
   <tile/>
   <tile/>
   <tile/>
   <tile/>
   <tile/>
   <tile/>
   <tile/>
   <tile/>
   <tile/>
   <tile/>
   <tile/>
   <tile/>
   <tile/>
   <tile/>
   <tile/>
   <tile/>
   <tile/>
   <tile/>
   <tile/>
   <tile/>
   <tile/>
   <tile/>
   <tile/>
   <tile/>
   <tile/>
   <tile/>
   <tile gid="33"/>
   <tile/>
   <tile/>
   <tile/>
   <tile/>
   <tile/>
   <tile/>
   <tile/>
   <tile/>
   <tile/>
   <tile/>
   <tile/>
   <tile/>
   <tile/>
   <tile/>
   <tile/>
  </data>
 </layer>
</map>
